X:1
T:Title
%%score { ( 1 3 ) | ( 2 4 ) }
L:1/8
Q:1/4=100
M:4/4
K:Ab
V:1 treble nm="Grand Piano"
V:3 treble 
V:2 bass 
V:4 bass 
V:1
 [CE]2 [CE]>[CF] [CE]2 [A,C][B,D] | [CE]2 [CA]>[DB] A2- [EA]2 | G2 G>A B2 cB | %3
w: Ira~B.~Wilson * * * * *|||
 [CA]2 [_CG]>[CF] z2 A,2 | c2 c>c [_Ge]2 [GA][GA] | [Fd]2 [Fd]>[Ec] [DB]4 | %6
w: |||
 [=DA]2 [DG][DF] [Dc]2 [DB][DF] | A2 G>F E4 | [CEc]2 E>F [CE]2 .[CA]2 | %9
w: |||
 [B,DEA]2 [DEG]2 G2- [DEG]2 | [Ed]2 F>F [DEG]2 FE | [EA]2 B>B z2 [EA]2 | %12
w: |||
 [E=Ac]2 .[EFd]2 [B,DF]2 FF | z2 c2 A4 | A2 z2 z4 | [FGd]2 [EGc]>[EB] [A,CEA]4 |] %16
w: ||||
V:2
 [A,,A,]2 [A,,A,]>[A,,A,] [A,,E,]2 [A,,E,][A,,E,] | [A,,A,]2 [A,,E,]>[A,,E,] E,2 C2 | %2
 [E,B,D]2 [E,B,D]>[E,A,D] [E,G,D]2 [E,G,E][E,D] | [A,,E,]2 [A,,=D,]>[A,,D,] E,2 z2 | %4
 [A,E]2 [A,E]>[A,E] [C,A,]2 [C,A,][C,A,] | [D,A,]2 [F,=A,]>[F,A,] [B,,B,]4 | %6
 [B,,B,]2 [B,,B,][B,,B,] [B,,B,]2 [B,,B,][B,,B,] | [E,B,D]2 [E,B,D]>[E,B,D] [G,B,D]4 | %8
 [A,,,A,,]2 [E,,E,]2 [A,,A,]2 z[K:treble] B | B,,2 z z/ F/ B,,2 [E,,E,]2 | %10
 [B,,B,]2 [G,,G,]2 [E,,E,]2 [D,,D,]2 | [C,,C,]2 [E,,E,]2 [A,EA]2 [_G,,_G,]2 | %12
 [F,,F,]2 z[K:treble] c[K:bass] B,,2 [_A,D]2 | [G,,G,]2 [E,,E,]2 [F,,F,]2 [E,,E,]2 | %14
 [=D,,=D,]4 z[K:treble] [Ac]2 [EA] | [E,,E,]2 z z/ D/ A,,4 |] %16
V:3
 x8 | z4 C2 z2 | x8 | z4 [=CE]4 | x8 | x8 | x8 | x8 | z2 C2 z4 | z4 [B,DE]2 z2 | z2 D2 z2 B,2 | %11
 z2 [EG]2 c4 | x8 | [DEB]2 [DG]->[DGB] [CF]2 [CF]2 | _C2- [C-G][CF] [=CE] e2 c | x8 |] %16
V:4
 x8 | z4 A,,4 | x8 | z4 A,,4 | x8 | x8 | x8 | x8 | z4 z2 [E,,E,]2[K:treble] | z2 [E,,E,]2 z4 | x8 | %11
 x8 | z2 [=A,,=A,]2[K:treble][K:bass] z4 | x8 | z4 [E,,E,]4[K:treble] | z2 [E,,E,]2 z4 |] %16

